**harm	**harte	**timestamp	**phrase	**leadinstrument	**kern
*M4/4	*M4/4	*	*	*	*
*D:	*D:	*	*	*	*D:
1r;	N	0	.	r	1r;
=1	=1	=1	=1	=1	=1
*>A_intro	*>A_intro	*>A_intro	*>A_intro	*>A_intro	*>A_intro
*M6/4	*M6/4	*M6/4	*M6/4	*M6/4	*M6/4
4v	A:min	0.444	newline	guitar	4A 4cc 4ee
4IV	G:maj	0.939	.	guitar	4G 4b 4dd
4v	A:min	1.435	.	guitar	4A 4cc 4ee
4v	A:min	1.931	.	guitar	4A 4cc 4ee
4IV	G:maj	2.427	.	guitar	4G 4b 4dd
4v	A:min	2.923	.	guitar	4A 4cc 4ee
=2	=2	=2	=2	=2	=2
4v	A:min	3.419	.	guitar	4A 4cc 4ee
4IV	G:maj	3.915	.	guitar	4G 4b 4dd
4IV	G:maj	4.411	.	guitar	4G 4b 4dd
4v	A:min	4.907	.	guitar	4A 4cc 4ee
4IV	G:maj	5.403	.	guitar	4G 4b 4dd
4IV	G:maj	5.899	.	guitar	4G 4b 4dd
=3	=3	=3	=3	=3	=3
*M2/4	*M2/4	*M2/4	*M2/4	*M2/4	*M2/4
2v	A:min	6.395	.	guitar	2A 2cc 2ee
=4	=4	=4	=4	=4	=4
*M6/4	*M6/4	*M6/4	*M6/4	*M6/4	*M6/4
4v	A:min	7.387	newline	guitar	4A 4cc 4ee
4IV	G:maj	7.911	.	guitar	4G 4b 4dd
4v	A:min	8.435	.	guitar	4A 4cc 4ee
4v	A:min	8.959	.	guitar	4A 4cc 4ee
4IV	G:maj	9.484	.	guitar	4G 4b 4dd
4v	A:min	10.008	.	guitar	4A 4cc 4ee
=5	=5	=5	=5	=5	=5
4v	A:min	10.532	.	guitar	4A 4cc 4ee
4IV	G:maj	11.056	.	guitar	4G 4b 4dd
4IV	G:maj	11.58	.	guitar	4G 4b 4dd
4v	A:min	12.104	.	guitar	4A 4cc 4ee
4IV	G:maj	12.628	.	guitar	4G 4b 4dd
4IV	G:maj	13.152	.	guitar	4G 4b 4dd
=6	=6	=6	=6	=6	=6
*M2/4	*M2/4	*M2/4	*M2/4	*M2/4	*M2/4
2v	A:min	13.676	.	guitar	2A 2cc 2ee
=7	=7	=7	=7	=7	=7
*M5/4	*M5/4	*M5/4	*M5/4	*M5/4	*M5/4
2ii	E:min	14.725	newline	guitar	2E 2g 2b
4I	D:maj	15.779	.	guitar	4D 4f# 4a
4ii	E:min	16.306	.	guitar	4E 4g 4b
4vi	B:min	16.833	.	guitar	4B 4dd 4ff#
=8	=8	=8	=8	=8	=8
*M4/4	*M4/4	*M4/4	*M4/4	*M4/4	*M4/4
4ii	E:min	17.36	.	guitar	4E 4g 4b
4IV	G:maj	17.887	.	guitar	4G 4b 4dd
4V	A:maj	18.414	.	guitar	4A 4cc# 4ee
4VI	B:maj	18.941	.	guitar	4B 4dd# 4ff#
=9	=9	=9	=9	=9	=9
*M2/4	*M2/4	*M2/4	*M2/4	*M2/4	*M2/4
2ii	E:min	19.468	.	guitar	2E 2g 2b
=10	=10	=10	=10	=10	=10
*M5/4	*M5/4	*M5/4	*M5/4	*M5/4	*M5/4
2ii	E:min	20.522	newline	guitar	2E 2g 2b
4I	D:maj	21.567	.	guitar	4D 4f# 4a
4ii	E:min	22.09	.	guitar	4E 4g 4b
4vi	B:min	22.613	.	guitar	4B 4dd 4ff#
=11	=11	=11	=11	=11	=11
*M4/4	*M4/4	*M4/4	*M4/4	*M4/4	*M4/4
4ii	E:min	23.136	.	guitar	4E 4g 4b
4IV	G:maj	23.659	.	guitar	4G 4b 4dd
4V	A:maj	24.182	.	guitar	4A 4cc# 4ee
4VI	B:maj	24.705	.	guitar	4B 4dd# 4ff#
=12	=12	=12	=12	=12	=12
1II	E:maj	25.228	.	guitar	1E 1g# 1b
1r;	N	27.319	.	r	1r;
=13	=13	=13	=13	=13	=13
*>B_intro	*>B_intro	*>B_intro	*>B_intro	*>B_intro	*>B_intro
1I	D:sus2	31.846	newline	guitar	1D 1f# 1a
=14	=14	=14	=14	=14	=14
1ii	E:(b3,b7,11,9)	33.687	.	guitar	1E 1g 1b
=15	=15	=15	=15	=15	=15
1IV	G:maj	35.527	.	guitar	1G 1b 1dd
=16	=16	=16	=16	=16	=16
2I	D:5	37.367	.	guitar	2D 2f# 2a
2I	D:sus4	38.288	.	guitar	2D 2f# 2a
=17	=17	=17	=17	=17	=17
1I	D:sus2	39.208	newline	guitar	1D 1f# 1a
=18	=18	=18	=18	=18	=18
1ii	E:(b3,b7,11,9)	41.028	.	guitar	1E 1g 1b
=19	=19	=19	=19	=19	=19
1IV	G:maj	42.848	.	guitar	1G 1b 1dd
=20	=20	=20	=20	=20	=20
2I	D:5	44.668	.	guitar	2D 2f# 2a
2ii7	E:min7	45.578	.	guitar	2E 2g 2b 2dd
=21	=21	=21	=21	=21	=21
*>C_verse	*>C_verse	*>C_verse	*>C_verse	*>C_verse	*>C_verse
1V	A:maj	46.488	newline	voice	1A 1cc# 1ee
=22	=22	=22	=22	=22	=22
1IV	G:maj	48.346	.	voice	1G 1b 1dd
=23	=23	=23	=23	=23	=23
1I	D:maj	50.204	.	voice	1D 1f# 1a
=24	=24	=24	=24	=24	=24
1I	D:maj	52.062	.	voice	1D 1f# 1a
=25	=25	=25	=25	=25	=25
1V	A:maj	53.921	newline	voice	1A 1cc# 1ee
=26	=26	=26	=26	=26	=26
1IV	G:maj	55.731	.	voice	1G 1b 1dd
=27	=27	=27	=27	=27	=27
1I	D:maj	57.542	.	voice	1D 1f# 1a
=28	=28	=28	=28	=28	=28
1I	D:maj	59.353	.	voice	1D 1f# 1a
=29	=29	=29	=29	=29	=29
*>D_prechorus	*>D_prechorus	*>D_prechorus	*>D_prechorus	*>D_prechorus	*>D_prechorus
1IV	G:maj	61.163	newline	voice	1G 1b 1dd
=30	=30	=30	=30	=30	=30
1I	D:maj	63.02	.	voice	1D 1f# 1a
=31	=31	=31	=31	=31	=31
1IV	G:maj	64.878	.	voice	1G 1b 1dd
=32	=32	=32	=32	=32	=32
1V	A:maj	66.735	.	voice	1A 1cc# 1ee
=33	=33	=33	=33	=33	=33
1ii	E:min	68.592	newline	voice	1E 1g 1b
=34	=34	=34	=34	=34	=34
1iii7d	F#:min7/b7	70.442	.	voice	1f# 1a 1cc# 1E
=35	=35	=35	=35	=35	=35
1ii	E:min	72.292	.	voice	1E 1g 1b
=36	=36	=36	=36	=36	=36
2.ii	E:min	74.142	.	voice	2E 2g 2b
4Ie	D:sus2/2	75.529	.	voice	4D 4f# 4a
=37	=37	=37	=37	=37	=37
*>E_chorus	*>E_chorus	*>E_chorus	*>E_chorus	*>E_chorus	*>E_chorus
1ii	E:min	75.991	newline	voice	1E 1g 1b
=38	=38	=38	=38	=38	=38
1V	A:maj	77.856	.	voice	1A 1cc# 1ee
=39	=39	=39	=39	=39	=39
1ii	E:min	79.72	.	voice	1E 1g 1b
=40	=40	=40	=40	=40	=40
1V	A:maj	81.584	.	voice	1A 1cc# 1ee
=41	=41	=41	=41	=41	=41
1ii	E:min	83.449	newline	voice	1E 1g 1b
=42	=42	=42	=42	=42	=42
1V	A:maj	85.305	.	voice	1A 1cc# 1ee
=43	=43	=43	=43	=43	=43
1I	D:maj	87.162	.	voice	1D 1f# 1a
=44	=44	=44	=44	=44	=44
1I	D:maj	89.019	.	voice	1D 1f# 1a
=45	=45	=45	=45	=45	=45
*>C_verse	*>C_verse	*>C_verse	*>C_verse	*>C_verse	*>C_verse
1V	A:maj	90.875	newline	voice	1A 1cc# 1ee
=46	=46	=46	=46	=46	=46
1IV	G:maj	92.747	.	voice	1G 1b 1dd
=47	=47	=47	=47	=47	=47
1I	D:maj	94.618	.	voice	1D 1f# 1a
=48	=48	=48	=48	=48	=48
1I	D:maj	96.49	.	voice	1D 1f# 1a
=49	=49	=49	=49	=49	=49
1V	A:maj	98.361	newline	voice	1A 1cc# 1ee
=50	=50	=50	=50	=50	=50
1IV	G:maj	100.206	.	voice	1G 1b 1dd
=51	=51	=51	=51	=51	=51
1I	D:maj	102.051	.	voice	1D 1f# 1a
=52	=52	=52	=52	=52	=52
1I	D:maj	103.897	.	voice	1D 1f# 1a
=53	=53	=53	=53	=53	=53
*>D_prechorus	*>D_prechorus	*>D_prechorus	*>D_prechorus	*>D_prechorus	*>D_prechorus
1IV	G:maj	105.742	newline	voice	1G 1b 1dd
=54	=54	=54	=54	=54	=54
1I	D:maj	107.596	.	voice	1D 1f# 1a
=55	=55	=55	=55	=55	=55
1IV	G:maj	109.449	.	voice	1G 1b 1dd
=56	=56	=56	=56	=56	=56
1V	A:maj	111.303	.	voice	1A 1cc# 1ee
=57	=57	=57	=57	=57	=57
1ii	E:min	113.157	newline	voice	1E 1g 1b
=58	=58	=58	=58	=58	=58
1iii7	F#:min7	115.031	.	voice	1F# 1a 1cc# 1ee
=59	=59	=59	=59	=59	=59
1ii	E:min	116.906	.	voice	1E 1g 1b
=60	=60	=60	=60	=60	=60
1Ie	D:sus2/2	118.781	.	voice	1D 1f# 1a
=61	=61	=61	=61	=61	=61
*>E_chorus	*>E_chorus	*>E_chorus	*>E_chorus	*>E_chorus	*>E_chorus
1ii	E:min	120.656	newline	voice	1E 1g 1b
=62	=62	=62	=62	=62	=62
1V	A:maj	122.514	.	voice	1A 1cc# 1ee
=63	=63	=63	=63	=63	=63
1ii	E:min	124.372	.	voice	1E 1g 1b
=64	=64	=64	=64	=64	=64
1V	A:maj	126.23	.	voice	1A 1cc# 1ee
=65	=65	=65	=65	=65	=65
1ii	E:min	128.088	newline	voice	1E 1g 1b
=66	=66	=66	=66	=66	=66
2V	A:maj	129.966	.	voice	2A 2cc# 2ee
2I	D:sus4	130.905	.	voice	2D 2f# 2a
=67	=67	=67	=67	=67	=67
1I	D:maj	131.843	.	voice	1D 1f# 1a
=68	=68	=68	=68	=68	=68
1I	D:maj	133.721	.	voice	1D 1f# 1a
=69	=69	=69	=69	=69	=69
*>C_verse	*>C_verse	*>C_verse	*>C_verse	*>C_verse	*>C_verse
1V	A:maj	135.599	newline	voice	1A 1cc# 1ee
=70	=70	=70	=70	=70	=70
1IV	G:maj	137.459	.	voice	1G 1b 1dd
=71	=71	=71	=71	=71	=71
1I	D:maj	139.32	.	voice	1D 1f# 1a
=72	=72	=72	=72	=72	=72
1I	D:maj	141.181	.	voice	1D 1f# 1a
=73	=73	=73	=73	=73	=73
1V	A:maj	143.041	newline	voice	1A 1cc# 1ee
=74	=74	=74	=74	=74	=74
1IV	G:maj	144.901	.	voice	1G 1b 1dd
=75	=75	=75	=75	=75	=75
1I	D:maj	146.762	.	voice	1D 1f# 1a
=76	=76	=76	=76	=76	=76
1I	D:maj	148.622	.	voice	1D 1f# 1a
=77	=77	=77	=77	=77	=77
*>D_prechorus	*>D_prechorus	*>D_prechorus	*>D_prechorus	*>D_prechorus	*>D_prechorus
1IV	G:maj	150.482	newline	voice	1G 1b 1dd
=78	=78	=78	=78	=78	=78
1I	D:maj	152.334	.	voice	1D 1f# 1a
=79	=79	=79	=79	=79	=79
1IV	G:maj	154.186	.	voice	1G 1b 1dd
=80	=80	=80	=80	=80	=80
1V	A:maj	156.038	.	voice	1A 1cc# 1ee
=81	=81	=81	=81	=81	=81
1ii	E:min	157.89	newline	voice	1E 1g 1b
=82	=82	=82	=82	=82	=82
1iii7	F#:min7	159.671	.	voice	1F# 1a 1cc# 1ee
=83	=83	=83	=83	=83	=83
1ii	E:min	161.451	.	voice	1E 1g 1b
=84	=84	=84	=84	=84	=84
1Ie	D:sus2/2	163.232	.	voice	1D 1f# 1a
=85	=85	=85	=85	=85	=85
*>E_chorus	*>E_chorus	*>E_chorus	*>E_chorus	*>E_chorus	*>E_chorus
1ii	E:min	165.013	newline	voice	1E 1g 1b
=86	=86	=86	=86	=86	=86
1V	A:maj	166.989	.	voice	1A 1cc# 1ee
=87	=87	=87	=87	=87	=87
1ii	E:min	168.966	.	voice	1E 1g 1b
=88	=88	=88	=88	=88	=88
1V	A:maj	170.943	.	voice	1A 1cc# 1ee
=89	=89	=89	=89	=89	=89
1ii	E:min	172.919	newline	voice	1E 1g 1b
=90	=90	=90	=90	=90	=90
2V	A:maj	174.785	.	voice	2A 2cc# 2ee
2I	D:sus4	175.718	.	voice	2D 2f# 2a
=91	=91	=91	=91	=91	=91
1I	D:maj	176.651	.	voice	1D 1f# 1a
=92	=92	=92	=92	=92	=92
1I	D:maj	178.517	.	voice	1D 1f# 1a
=93	=93	=93	=93	=93	=93
*>F_solo	*>F_solo	*>F_solo	*>F_solo	*>F_solo	*>F_solo
1ii	E:min	180.383	newline	guitar	1E 1g 1b
=94	=94	=94	=94	=94	=94
1V	A:maj	182.243	.	guitar	1A 1cc# 1ee
=95	=95	=95	=95	=95	=95
1I	D:maj	184.103	.	guitar	1D 1f# 1a
=96	=96	=96	=96	=96	=96
1IV	G:maj	185.963	.	guitar	1G 1b 1dd
=97	=97	=97	=97	=97	=97
1ii	E:min	187.824	newline	guitar	1E 1g 1b
=98	=98	=98	=98	=98	=98
1IV	G:maj	189.673	.	guitar	1G 1b 1dd
=99	=99	=99	=99	=99	=99
1I	D:maj	191.522	.	guitar	1D 1f# 1a
=100	=100	=100	=100	=100	=100
1I	D:maj	193.371	.	guitar	1D 1f# 1a
=101	=101	=101	=101	=101	=101
*>C_verse	*>C_verse	*>C_verse	*>C_verse	*>C_verse	*>C_verse
1V	A:maj	195.221	newline	voice	1A 1cc# 1ee
=102	=102	=102	=102	=102	=102
1IV	G:maj	197.094	.	voice	1G 1b 1dd
=103	=103	=103	=103	=103	=103
1I	D:maj	198.967	.	voice	1D 1f# 1a
=104	=104	=104	=104	=104	=104
1I	D:maj	200.84	.	voice	1D 1f# 1a
=105	=105	=105	=105	=105	=105
1V	A:maj	202.713	newline	voice	1A 1cc# 1ee
=106	=106	=106	=106	=106	=106
1IV	G:maj	204.564	.	voice	1G 1b 1dd
=107	=107	=107	=107	=107	=107
1I	D:maj	206.415	.	voice	1D 1f# 1a
=108	=108	=108	=108	=108	=108
1I	D:maj	208.266	.	voice	1D 1f# 1a
=109	=109	=109	=109	=109	=109
*>D_prechorus	*>D_prechorus	*>D_prechorus	*>D_prechorus	*>D_prechorus	*>D_prechorus
1IV	G:maj	210.117	newline	voice	1G 1b 1dd
=110	=110	=110	=110	=110	=110
1I	D:maj	211.994	.	voice	1D 1f# 1a
=111	=111	=111	=111	=111	=111
1IV	G:maj	213.87	.	voice	1G 1b 1dd
=112	=112	=112	=112	=112	=112
1V	A:maj	215.746	.	voice	1A 1cc# 1ee
=113	=113	=113	=113	=113	=113
1ii	E:min	217.623	newline	voice	1E 1g 1b
=114	=114	=114	=114	=114	=114
1iii7	F#:min7	219.512	.	voice	1F# 1a 1cc# 1ee
=115	=115	=115	=115	=115	=115
1ii	E:min	221.401	.	voice	1E 1g 1b
=116	=116	=116	=116	=116	=116
2.ii	E:min	223.29	.	voice	2E 2g 2b
4Ie	D:sus2/2	224.707	.	voice	4D 4f# 4a
=117	=117	=117	=117	=117	=117
*>E_chorus	*>E_chorus	*>E_chorus	*>E_chorus	*>E_chorus	*>E_chorus
1ii	E:min	225.179	newline	voice	1E 1g 1b
=118	=118	=118	=118	=118	=118
1V	A:maj	227.052	.	voice	1A 1cc# 1ee
=119	=119	=119	=119	=119	=119
1ii	E:min	228.924	.	voice	1E 1g 1b
=120	=120	=120	=120	=120	=120
1V	A:maj	230.796	.	voice	1A 1cc# 1ee
=121	=121	=121	=121	=121	=121
1ii	E:min	232.669	newline	voice	1E 1g 1b
=122	=122	=122	=122	=122	=122
2V	A:maj	234.524	.	voice	2A 2cc# 2ee
2I	D:sus4	235.452	.	voice	2D 2f# 2a
=123	=123	=123	=123	=123	=123
1I	D:maj	236.38	.	voice	1D 1f# 1a
=124	=124	=124	=124	=124	=124
1I	D:maj	238.236	.	voice	1D 1f# 1a
=125	=125	=125	=125	=125	=125
*>F_solo	*>F_solo	*>F_solo	*>F_solo	*>F_solo	*>F_solo
1ii	E:min	240.091	newline	guitar	1E 1g 1b
=126	=126	=126	=126	=126	=126
1V	A:maj	241.926	.	guitar	1A 1cc# 1ee
=127	=127	=127	=127	=127	=127
1I	D:maj	243.76	.	guitar	1D 1f# 1a
=128	=128	=128	=128	=128	=128
1IV	G:maj	245.594	.	guitar	1G 1b 1dd
=129	=129	=129	=129	=129	=129
1ii	E:min	247.429	newline	guitar	1E 1g 1b
=130	=130	=130	=130	=130	=130
1IV	G:maj	249.328	.	guitar	1G 1b 1dd
=131	=131	=131	=131	=131	=131
1I	D:maj	251.227	.	guitar	1D 1f# 1a
=132	=132	=132	=132	=132	=132
1I	D:maj	253.126	.	guitar	1D 1f# 1a
=133	=133	=133	=133	=133	=133
1ii	E:min	255.025	newline	guitar	1E 1g 1b
=134	=134	=134	=134	=134	=134
1V	A:maj	256.893	.	guitar	1A 1cc# 1ee
=135	=135	=135	=135	=135	=135
1I	D:maj	258.761	.	guitar	1D 1f# 1a
=136	=136	=136	=136	=136	=136
1IV	G:maj	260.63	.	guitar	1G 1b 1dd
=137	=137	=137	=137	=137	=137
1ii	E:min	262.498	newline	guitar	1E 1g 1b
=138	=138	=138	=138	=138	=138
1IV	G:maj	264.371	.	guitar	1G 1b 1dd
=139	=139	=139	=139	=139	=139
*>G_interlude	*>G_interlude	*>G_interlude	*>G_interlude	*>G_interlude	*>G_interlude
1I	D:sus2	266.245	->newline	guitar	1D 1f# 1a
=140	=140	=140	=140	=140	=140
1ii	E:(b3,b7,11,9)	268.113	.	guitar	1E 1g 1b
=141	=141	=141	=141	=141	=141
1IV	G:maj	269.982	.	guitar	1G 1b 1dd
=142	=142	=142	=142	=142	=142
2I	D:5	271.85	.	guitar	2D 2f# 2a
2I	D:sus4	272.784	.	guitar	2D 2f# 2a
=143	=143	=143	=143	=143	=143
1I	D:sus2	273.718	newline	guitar	1D 1f# 1a
=144	=144	=144	=144	=144	=144
1ii	E:(b3,b7,11,9)	275.572	.	guitar	1E 1g 1b
=145	=145	=145	=145	=145	=145
1IV	G:maj	277.426	.	guitar	1G 1b 1dd
=146	=146	=146	=146	=146	=146
2I	D:5	279.28	.	guitar	2D 2f# 2a
2I	D:sus4	280.207	.	guitar	2D 2f# 2a
=147	=147	=147	=147	=147	=147
1I	D:sus2	281.134	newline	guitar	1D 1f# 1a
=148	=148	=148	=148	=148	=148
1ii	E:(b3,b7,11,9)	282.973	.	guitar	1E 1g 1b
=149	=149	=149	=149	=149	=149
1IV	G:maj	284.811	.	guitar	1G 1b 1dd
=150	=150	=150	=150	=150	=150
2I	D:5	286.65	.	guitar	2D 2f# 2a
2I	D:sus4	287.57	.	guitar	2D 2f# 2a
=151	=151	=151	=151	=151	=151
1I	D:sus2	288.489	newline	guitar	1D 1f# 1a
=152	=152	=152	=152	=152	=152
1ii	E:(b3,b7,11,9)	290.341	.	guitar	1E 1g 1b
=153	=153	=153	=153	=153	=153
1IV	G:maj	292.194	.	guitar	1G 1b 1dd
=154	=154	=154	=154	=154	=154
2I	D:5	294.046	.	guitar	2D 2f# 2a
2I	D:sus4	294.972	.	guitar	2D 2f# 2a
=155	=155	=155	=155	=155	=155
1I	D:sus2	295.899	newline	guitar	1D 1f# 1a
=156	=156	=156	=156	=156	=156
1ii	E:(b3,b7,11,9)	297.759	.	guitar	1E 1g 1b
=157	=157	=157	=157	=157	=157
1IV	G:maj	299.619	.	guitar	1G 1b 1dd
=158	=158	=158	=158	=158	=158
2I	D:5	301.48	.	guitar	2D 2f# 2a
2I	D:sus4	302.41	.	guitar	2D 2f# 2a
=159	=159	=159	=159	=159	=159
*>G_outro	*>G_outro	*>G_outro	*>G_outro	*>G_outro	*>G_outro
1I	D:sus2	303.34	newline	voice	1D 1f# 1a
=160	=160	=160	=160	=160	=160
1ii	E:(b3,b7,11,9)	305.166	.	voice	1E 1g 1b
=161	=161	=161	=161	=161	=161
1IV	G:maj	306.991	.	voice	1G 1b 1dd
=162	=162	=162	=162	=162	=162
2I	D:5	308.816	.	voice	2D 2f# 2a
2I	D:sus4	309.729	.	voice	2D 2f# 2a
=163	=163	=163	=163	=163	=163
1I	D:sus2	310.641	newline	voice	1D 1f# 1a
=164	=164	=164	=164	=164	=164
1ii	E:(b3,b7,11,9)	312.453	.	voice	1E 1g 1b
=165	=165	=165	=165	=165	=165
1IV	G:maj	314.265	.	voice	1G 1b 1dd
=166	=166	=166	=166	=166	=166
2I	D:5	316.076	.	voice	2D 2f# 2a
2I	D:sus4	316.982	.	voice	2D 2f# 2a
=167	=167	=167	=167	=167	=167
1I	D:sus2	317.888	newline	voice	1D 1f# 1a
=168	=168	=168	=168	=168	=168
1ii	E:(b3,b7,11,9)	319.757	.	voice	1E 1g 1b
=169	=169	=169	=169	=169	=169
1IV	G:maj	321.625	.	voice	1G 1b 1dd
=170	=170	=170	=170	=170	=170
2I	D:5	323.494	.	voice	2D 2f# 2a
2I	D:sus4	324.429	.	voice	2D 2f# 2a
=171	=171	=171	=171	=171	=171
1I	D:sus2	325.363	newline	voice	1D 1f# 1a
=172	=172	=172	=172	=172	=172
1ii	E:(b3,b7,11,9)	327.168	.	voice	1E 1g 1b
=173	=173	=173	=173	=173	=173
1IV	G:maj	328.973	.	voice	1G 1b 1dd
=174	=174	=174	=174	=174	=174
2I	D:5	330.778	.	voice	2D 2f# 2a
2I	D:sus4	331.68	.	voice	2D 2f# 2a
=175	=175	=175	=175	=175	=175
1I	D:sus2	332.583	newline	fadeout	1D 1f# 1a
=176	=176	=176	=176	=176	=176
1ii	E:(b3,b7,11,9)	334.411	.	fadeout	1E 1g 1b
=177	=177	=177	=177	=177	=177
1IV	G:maj	336.238	.	fadeout	1G 1b 1dd
=178	=178	=178	=178	=178	=178
2I	D:5	338.066	.	fadeout	2D 2f# 2a
2I	D:sus4	338.979	.	fadeout	2D 2f# 2a
=179	=179	=179	=179	=179	=179
1I	D:sus2	339.893	newline	guitar	1D 1f# 1a
=180	=180	=180	=180	=180	=180
1ii	E:(b3,b7,11,9)	341.31	.	guitar	1E 1g 1b
=181	=181	=181	=181	=181	=181
1IV	G:maj	342.727	.	guitar	1G 1b 1dd
=182	=182	=182	=182	=182	=182
2I	D:5	344.144	.	guitar	2D 2f# 2a
2I	D:sus4	344.853	.	guitar	2D 2f# 2a
1r;	N	345.561	.	r	1r;
1r;	N	350.198	.	r	1r;
*-	*-	*-	*-	*-	*-
!!!OTL: Maggie May
!!!COC: Rod Stewart
!!!BillboardChartDate: 1971/11/27
!!!BillboardPeak: 1
!!!BillboardWeeksOnChart: 17
!!!SampleTargetRank: 11
!!!SampleActualRank: 11
!!!SampleID#: 0100
!!!RDF**harmony: **recip + pitch class of root + harmonic quality
!!!RDF**harte: Chris Harte's syntax, used by MIREX
!!!RDF**phrase: newline = linebreak in original McGill transcription
!!!RDF**timestamp: McGill audio timestamp in seconds
!!!RDF**leadinstrument: original McGill primary instrumentation annotation
!!!RDT: 2017/01/12/
!!!ENC: Nathaniel Condit-Schultz
!!!EST: Awating manual error checking and editing.
